public/img/Union.svg

<svg width="46" height="52" viewBox="0 0 46 52" fill="none">
<path fill-rule="evenodd" clip-rule="evenodd" d="M37.019 31.0767C37.0025 30.6218 36.9986 30.0842 37.0039 29.4743C37.0139 28.3392 37.0552 27.0026 37.1002 25.5471C37.1259 24.7159 37.1529 23.846 37.1758 22.9527C37.2385 20.513 37.2705 17.9244 37.1595 15.5936C37.0497 13.2867 36.7968 11.1382 36.247 9.62624C34.0831 3.6754 28.6753 0.5503 20.9611 0.0360225C17.0119 -0.227256 12.1839 0.950748 8.32515 3.6321C4.43913 6.33242 1.50122 10.5894 1.50122 16.4338V16.447L1.50161 16.4603C1.5273 17.3343 1.56794 18.2573 1.6098 19.2081C1.70606 21.3946 1.8088 23.7282 1.75122 25.9519C1.71018 27.5366 1.58754 29.024 1.33051 30.3137C1.07172 31.6123 0.688523 32.648 0.167761 33.3767C-0.0604319 33.696 -0.0553939 34.1264 0.180211 34.4403C1.03816 35.5833 2.02514 36.2403 3.06589 36.5704C3.38142 36.6704 3.69628 36.7386 4.00694 36.7825C2.98513 38.5107 2.22569 40.5353 2.03493 42.824C1.89854 44.4602 2.16444 45.7833 2.7825 46.8263C3.40193 47.8716 4.3214 48.5449 5.32725 48.976C7.24829 49.7993 9.6511 49.799 11.3503 49.7987L11.3735 49.7987C11.934 50.3536 12.5986 50.6944 13.2777 50.8884C14.829 51.3317 16.5245 51.029 17.5557 50.7712C18.4372 50.5508 19.1342 49.9712 19.6158 49.2994C19.708 49.1707 19.7939 49.0367 19.8729 48.8984H35.3975C35.8754 49.5277 36.5466 50.0617 37.3844 50.2712C38.4157 50.529 40.1112 50.8317 41.6625 50.3884C42.4609 50.1603 43.2393 49.7294 43.852 48.9861C44.4628 48.2452 44.8575 47.2563 44.9973 45.9974C45.2297 43.9059 44.493 42.4133 43.4186 41.4427C42.3862 40.51 41.0954 40.1028 40.2022 40.0036L40.1527 39.998H40.1028C39.6107 39.998 39.1815 40.0385 38.8216 40.1382C38.8729 39.8998 38.8999 39.6523 38.8999 39.3984C38.8999 37.8906 37.9464 36.6054 36.6094 36.113C37.3969 35.4713 37.8999 34.4936 37.8999 33.3984C37.8999 32.5076 37.5671 31.6945 37.019 31.0767ZM3.30123 16.4207C3.32541 17.2386 3.3644 18.1255 3.40517 19.0529C3.50245 21.2657 3.60989 23.7095 3.55061 25.9985C3.50821 27.6359 3.3807 29.2359 3.09579 30.6655C2.86522 31.8225 2.52367 32.9096 2.01071 33.825C2.53512 34.379 3.07653 34.6854 3.61002 34.8546C4.11092 35.0134 4.63757 35.0617 5.18808 35.046C5.3543 34.8312 5.52359 34.6226 5.6951 34.4203C6.94276 32.9488 8.32596 31.7886 9.53674 30.9746C8.69963 30.2546 7.90897 29.4121 7.17991 28.44C3.6656 23.7543 3.41004 19.2821 4.604 15.5987C5.78003 11.9706 8.33585 9.17604 10.365 7.67627C10.7438 7.39626 11.2745 7.45577 11.5819 7.81273C11.8893 8.1697 11.8694 8.70333 11.5363 9.03644C10.6901 9.88258 10.1344 11.0789 9.91041 12.311C9.69594 13.4907 9.80325 14.6006 10.1478 15.3763C10.2235 15.4036 10.3501 15.4364 10.5412 15.4625C10.9936 15.5242 11.6496 15.5282 12.4731 15.4606C14.1094 15.3263 16.2548 14.9227 18.432 14.2898C20.6115 13.6561 22.7757 12.8061 24.4681 11.7998C26.2034 10.768 27.2533 9.6839 27.5317 8.66322C27.6354 8.28318 27.9171 7.81752 28.5016 7.70251C28.9748 7.60939 29.3878 7.81229 29.6324 7.96585C30.1606 8.29733 30.7126 8.91682 31.2154 9.63276C32.2461 11.1004 33.3246 13.3421 33.7838 15.7301C34.9063 21.567 32.9087 26.5578 29.4664 29.8984H34.3999C34.6758 29.8984 34.9442 29.9304 35.2017 29.9907C35.2016 29.8179 35.2024 29.6403 35.204 29.4585C35.2141 28.3054 35.2565 26.9323 35.302 25.4601C35.3276 24.633 35.3541 23.7746 35.3764 22.9065C35.4388 20.4754 35.4693 17.9411 35.3616 15.6792C35.2527 13.3934 35.0056 11.4795 34.5554 10.2414C32.7193 5.19222 28.1272 2.31776 20.8414 1.83204C17.2905 1.59531 12.8686 2.66689 9.3523 5.11027C5.86627 7.53264 3.30555 11.2713 3.30123 16.4207ZM10.2676 47.9909C10.1131 47.5431 10.0038 47.0459 9.94286 46.4974C9.71047 44.4059 10.4471 42.9133 11.5215 41.9427C12.554 41.01 13.8448 40.6028 14.738 40.5036L14.7875 40.498H14.8374C15.38 40.498 15.8461 40.5472 16.2273 40.6709C16.6178 40.7975 16.9999 41.0311 17.2192 41.4467C17.2998 41.5993 17.3454 41.7524 17.368 41.8986L17.3999 41.8984H17.9504C17.3021 41.2632 16.8999 40.3778 16.8999 39.3984C16.8999 38.1253 17.5797 37.0109 18.5961 36.3984C17.6143 35.8069 16.9466 34.747 16.9022 33.528C16.9114 33.7819 16.9475 34.0288 17.0079 34.266C14.9576 34.0295 12.9324 33.3389 11.0722 32.1281C9.89928 32.8415 8.40158 34.0116 7.06802 35.5844C5.42799 37.5186 4.07537 40.0142 3.8287 42.9735C3.71503 44.3373 3.9491 45.2641 4.33103 45.9087C4.7116 46.5509 5.29213 47.0026 6.0363 47.3215C7.2577 47.845 8.792 47.964 10.2676 47.9909ZM17.0283 32.456C17.4397 30.9808 18.7934 29.8984 20.3999 29.8984H26.6776C30.6348 27.0292 33.1695 22.0671 32.0162 16.07C31.61 13.9579 30.643 11.9497 29.7424 10.6673C29.473 10.2837 29.2299 9.99449 29.0306 9.79266C28.3817 11.223 26.9754 12.4031 25.3881 13.347C23.5214 14.4569 21.2022 15.3589 18.9345 16.0182C16.6644 16.6782 14.3987 17.1086 12.6204 17.2546C11.7366 17.3271 10.9345 17.3328 10.2979 17.246C9.98139 17.2028 9.66534 17.1316 9.38803 17.0102C9.12164 16.8936 8.78582 16.6841 8.59501 16.3025C8.07869 15.2699 7.91388 13.9773 8.04095 12.6914C7.34045 13.7159 6.72902 14.8804 6.31629 16.1537C5.30041 19.2877 5.46152 23.1489 8.61991 27.36C10.9334 30.4447 13.9364 32.048 17.0283 32.456ZM28.6154 9.45816C28.6154 9.45816 28.6195 9.45919 28.6284 9.46356L28.6241 9.462L28.6199 9.46033L28.6174 9.45918L28.6154 9.45816ZM20.3999 31.6984H34.3999C35.3388 31.6984 36.0999 32.4596 36.0999 33.3984C36.0999 34.3373 35.3388 35.0984 34.3999 35.0984H20.3999C19.461 35.0984 18.6999 34.3373 18.6999 33.3984C18.6999 32.4596 19.461 31.6984 20.3999 31.6984ZM37.6094 42.113L37.6135 42.1097L37.6148 42.115L37.6094 42.113ZM18.589 43.6984H35.4656C35.3168 43.8234 35.1818 43.9642 35.0615 44.1205C34.5235 44.8192 34.3795 45.6976 34.4569 46.5C34.4761 46.6996 34.5094 46.8999 34.5558 47.0984H20.4727C20.4766 47.0656 20.4802 47.0328 20.4833 47C20.5607 46.1976 20.4167 45.3192 19.8787 44.6205C19.5514 44.1953 19.1148 43.8839 18.589 43.6984ZM35.3999 37.6984H20.3999C19.461 37.6984 18.6999 38.4596 18.6999 39.3984C18.6999 40.3373 19.461 41.0984 20.3999 41.0984H35.3999C36.3388 41.0984 37.0999 40.3373 37.0999 39.3984C37.0999 38.4596 36.3388 37.6984 35.3999 37.6984ZM42.212 42.7784C41.5374 42.169 40.6573 41.8754 40.0512 41.7982C39.7571 41.8005 39.5524 41.8216 39.4145 41.8473C39.4354 41.9037 39.4622 41.9707 39.4961 42.0519L39.524 42.1186C39.5903 42.2761 39.6802 42.4898 39.7405 42.6946C39.8076 42.9225 39.8893 43.2958 39.7681 43.6923C39.6274 44.1529 39.2806 44.4474 38.8838 44.6053C38.5225 44.7492 38.0851 44.798 37.6027 44.798C36.9525 44.798 36.646 45.0129 36.4877 45.2186C36.3069 45.4534 36.2009 45.8329 36.2486 46.3273C36.2957 46.8161 36.4881 47.3333 36.7873 47.7506C37.087 48.1687 37.4525 48.4328 37.821 48.5249C38.7898 48.7671 40.0943 48.9644 41.168 48.6577C41.6822 48.5108 42.1226 48.2542 42.463 47.8412C42.8054 47.4259 43.0982 46.7898 43.2083 45.7987C43.3759 44.2902 42.8626 43.3661 42.212 42.7784ZM12.7282 43.2784C13.4028 42.669 14.2829 42.3754 14.889 42.2982C15.1831 42.3005 15.3878 42.3216 15.5257 42.3473C15.5048 42.4037 15.4779 42.4707 15.4441 42.5519L15.4161 42.6186C15.3499 42.7761 15.26 42.9898 15.1997 43.1946C15.1326 43.4225 15.0509 43.7958 15.1721 44.1923C15.3128 44.6529 15.6596 44.9474 16.0563 45.1053C16.4177 45.2492 16.8551 45.298 17.3375 45.298C17.9877 45.298 18.2942 45.5129 18.4525 45.7186C18.6333 45.9534 18.7393 46.3329 18.6916 46.8273C18.6445 47.3161 18.452 47.8333 18.1529 48.2506C17.8532 48.6687 17.4877 48.9328 17.1192 49.0249C16.1504 49.2671 14.8459 49.4644 13.7722 49.1577C13.258 49.0108 12.8176 48.7542 12.4771 48.3412C12.1348 47.9259 11.842 47.2898 11.7318 46.2987C11.5642 44.7902 12.0776 43.8661 12.7282 43.2784Z" fill="#21DAFF"/>
</svg>

<svg width="46" height="52" fill="none"><path fill-rule="evenodd" clip-rule="evenodd" d="M37.019 31.077c-.017-.455-.02-.993-.015-1.603.01-1.135.051-2.471.096-3.927.026-.831.053-1.701.076-2.594.063-2.44.094-5.029-.017-7.36-.11-2.306-.362-4.455-.912-5.967C34.083 3.676 28.675.55 20.961.036c-3.95-.263-8.777.915-12.636 3.596-3.886 2.7-6.824 6.957-6.824 12.802v.026c.026.874.067 1.797.109 2.748.096 2.187.199 4.52.141 6.744-.04 1.585-.163 3.072-.42 4.362-.26 1.298-.642 2.334-1.163 3.063A.9.9 0 00.18 34.44c.858 1.143 1.845 1.8 2.886 2.13.315.1.63.169.94.212-1.02 1.729-1.78 3.753-1.971 6.042-.136 1.636.13 2.96.748 4.002.619 1.046 1.538 1.719 2.544 2.15 1.921.823 4.324.823 6.023.823h.024c.56.555 1.225.895 1.904 1.09 1.551.443 3.246.14 4.278-.118.881-.22 1.578-.8 2.06-1.472.092-.128.178-.262.257-.4h15.524c.478.629 1.15 1.163 1.987 1.372 1.032.258 2.727.56 4.279.117.798-.228 1.576-.659 2.189-1.402.61-.74 1.006-1.73 1.145-2.989.233-2.091-.504-3.584-1.578-4.554-1.033-.933-2.324-1.34-3.217-1.44l-.05-.005h-.05c-.491 0-.92.04-1.28.14a3.501 3.501 0 00-2.212-4.025 3.493 3.493 0 001.29-2.715c0-.89-.333-1.704-.881-2.321zM3.301 16.42c.024.818.063 1.704.104 2.632.097 2.213.205 4.656.146 6.945-.043 1.638-.17 3.238-.455 4.668-.23 1.157-.572 2.244-1.085 3.159.524.554 1.066.86 1.599 1.03.5.158 1.028.207 1.578.191a19.097 19.097 0 014.349-4.071A15.959 15.959 0 017.18 28.44c-3.514-4.686-3.77-9.158-2.576-12.841 1.176-3.628 3.732-6.423 5.761-7.923a.9.9 0 011.171 1.36c-.846.847-1.402 2.043-1.626 3.275-.214 1.18-.107 2.29.238 3.065.075.028.202.06.393.087.453.061 1.109.065 1.932-.002 1.636-.135 3.782-.538 5.959-1.171 2.18-.634 4.344-1.484 6.036-2.49 1.735-1.032 2.785-2.116 3.064-3.137.103-.38.385-.845.97-.96.473-.094.886.11 1.13.263.529.331 1.08.95 1.583 1.667 1.031 1.467 2.11 3.71 2.569 6.097 1.122 5.837-.875 10.828-4.318 14.168H34.4c.276 0 .544.032.802.093 0-.173 0-.35.002-.532.01-1.154.053-2.527.098-3.999.026-.827.052-1.685.074-2.553.063-2.432.093-4.966-.014-7.228-.11-2.286-.356-4.2-.807-5.438-1.836-5.049-6.428-7.923-13.714-8.409-3.55-.237-7.972.835-11.489 3.278-3.486 2.423-6.046 6.161-6.05 11.31zm6.967 31.57a6.913 6.913 0 01-.325-1.494c-.233-2.091.504-3.584 1.579-4.554 1.032-.933 2.323-1.34 3.216-1.44l.05-.005h.05c.542 0 1.008.05 1.39.173.39.127.772.36.991.776.08.152.126.305.149.452h.582a3.498 3.498 0 01.646-5.5 3.498 3.498 0 01-1.588-2.133 13.703 13.703 0 01-5.936-2.138c-1.173.714-2.67 1.884-4.004 3.456-1.64 1.935-2.993 4.43-3.24 7.39-.113 1.363.121 2.29.503 2.935.38.642.961 1.094 1.705 1.413 1.222.523 2.756.642 4.232.669zm6.76-15.535a3.501 3.501 0 013.372-2.558h6.278c3.957-2.869 6.491-7.83 5.338-13.828-.406-2.112-1.373-4.12-2.274-5.403a6.927 6.927 0 00-.711-.874c-.65 1.43-2.056 2.61-3.643 3.554-1.867 1.11-4.186 2.012-6.454 2.671-2.27.66-4.535 1.09-6.314 1.237-.883.072-1.685.078-2.322-.009a3.458 3.458 0 01-.91-.236c-.266-.116-.602-.326-.793-.708-.516-1.032-.681-2.325-.554-3.61a13.598 13.598 0 00-1.725 3.462C5.3 19.288 5.462 23.149 8.62 27.36c2.313 3.085 5.316 4.688 8.408 5.096zM28.615 9.458s.005.001.013.006l-.004-.002-.004-.002h-.003l-.002-.002zM20.4 31.698h14a1.7 1.7 0 010 3.4h-14a1.7 1.7 0 110-3.4zm17.21 10.415l.004-.003v.005l-.005-.002zm-19.021 1.585h16.877a2.703 2.703 0 00-.404.422c-.538.7-.682 1.578-.605 2.38.02.2.052.4.099.598H20.473l.01-.098c.078-.802-.066-1.68-.604-2.38a2.757 2.757 0 00-1.29-.922zm16.81-6h-15a1.7 1.7 0 000 3.4h15a1.7 1.7 0 100-3.4zm6.813 5.08c-.675-.609-1.555-.903-2.16-.98a3.728 3.728 0 00-.638.05c.021.056.048.123.082.204l.028.067c.066.157.156.37.216.576.068.227.15.6.028.997-.14.46-.487.755-.884.913-.361.144-.799.193-1.281.193-.65 0-.957.215-1.115.42-.181.235-.287.615-.24 1.11.048.488.24 1.005.54 1.423.299.418.665.682 1.033.774.969.242 2.273.44 3.347.133.514-.147.955-.404 1.295-.817.342-.415.635-1.051.745-2.042.168-1.509-.345-2.433-.996-3.02zm-29.484.5c.675-.609 1.555-.903 2.161-.98.294.002.499.024.637.05a5.832 5.832 0 01-.082.204l-.028.067c-.066.157-.156.37-.216.576-.067.227-.15.6-.028.997.14.46.488.755.884.913.362.144.8.193 1.281.193.65 0 .957.215 1.116.42.18.235.286.615.239 1.11a3.006 3.006 0 01-.54 1.423c-.299.418-.664.682-1.033.774-.969.242-2.273.44-3.347.133-.514-.147-.954-.404-1.295-.817-.342-.415-.635-1.051-.745-2.042-.168-1.509.346-2.433.996-3.02z" fill="#21DAFF"/></svg>
